build/img/icons/whatsapp.svg

<svg width="48" height="48" viewBox="0 0 48 48" fill="none" xmlns="http://www.w3.org/2000/svg">
<path fill-rule="evenodd" clip-rule="evenodd" d="M0 24C0 10.7452 10.7452 0 24 0C37.2548 0 48 10.7452 48 24C48 37.2548 37.2548 48 24 48C10.7452 48 0 37.2548 0 24Z" fill="#F8F8F8"/>
<g clip-path="url(#clip0)">
<path d="M29.6953 26.0954L29.6852 26.1798C27.2113 24.9468 26.9526 24.7826 26.6331 25.2618C26.4115 25.5937 25.7657 26.3463 25.5711 26.5691C25.3742 26.7884 25.1785 26.8053 24.8443 26.6534C24.5068 26.4847 23.4235 26.1303 22.141 24.9828C21.142 24.0884 20.4715 22.9916 20.2735 22.6541C19.9438 22.0848 20.6335 22.0038 21.2612 20.8158C21.3737 20.5796 21.3163 20.3939 21.2331 20.2263C21.1487 20.0576 20.4771 18.4038 20.1958 17.7446C19.9258 17.0876 19.648 17.1708 19.4398 17.1708C18.7918 17.1146 18.3182 17.1236 17.9008 17.5578C16.0851 19.5536 16.543 21.6123 18.0966 23.8016C21.1498 27.7976 22.7766 28.5333 25.7511 29.5548C26.5543 29.8102 27.2867 29.7742 27.8661 29.6909C28.5118 29.5886 29.854 28.8798 30.1341 28.0867C30.421 27.2936 30.421 26.6354 30.3366 26.4836C30.2533 26.3317 30.0328 26.2473 29.6953 26.0954Z" fill="#201D54"/>
<path d="M33.085 13.8787C24.4349 5.51653 10.1193 11.5814 10.1136 23.3782C10.1136 25.7362 10.7312 28.0357 11.908 30.0663L10 36.9985L17.1269 35.14C26.02 39.9438 36.9955 33.565 37 23.3849C37 19.8119 35.605 16.4493 33.0681 13.9225L33.085 13.8787ZM34.7523 23.3478C34.7455 31.9349 25.3191 37.2978 17.8637 32.9148L17.4588 32.674L13.24 33.7709L14.3706 29.6703L14.1017 29.2484C9.46225 21.8628 14.7925 12.2103 23.581 12.2103C26.5667 12.2103 29.3691 13.3747 31.4796 15.484C33.589 17.5754 34.7523 20.3778 34.7523 23.3478Z" fill="#201D54"/>
</g>
<defs>
<clipPath id="clip0">
<rect width="27" height="27" fill="white" transform="translate(10 10)"/>
</clipPath>
</defs>
</svg>

<svg width="48" height="48" fill="none" xmlns="http://www.w3.org/2000/svg"><path fill-rule="evenodd" clip-rule="evenodd" d="M0 24C0 10.745 10.745 0 24 0s24 10.745 24 24-10.745 24-24 24S0 37.255 0 24z" fill="#F8F8F8"/><g clip-path="url(#clip0)" fill="#201D54"><path d="M29.695 26.095l-.01.085c-2.474-1.233-2.732-1.397-3.052-.918-.221.332-.867 1.084-1.062 1.307-.197.22-.393.236-.727.084-.337-.168-1.42-.523-2.703-1.67-.999-.895-1.67-1.991-1.867-2.329-.33-.57.36-.65.987-1.838.113-.236.055-.422-.028-.59-.084-.168-.756-1.822-1.037-2.481-.27-.657-.548-.574-.756-.574-.648-.056-1.122-.047-1.54.387-1.815 1.996-1.357 4.054.197 6.244 3.053 3.996 4.68 4.731 7.654 5.753.803.255 1.536.22 2.115.136.646-.102 1.988-.811 2.268-1.604.287-.793.287-1.452.203-1.603-.084-.152-.304-.237-.642-.389z"/><path d="M33.085 13.879c-8.65-8.362-22.966-2.298-22.971 9.5 0 2.357.617 4.657 1.794 6.687L10 37l7.127-1.859C26.02 39.944 36.996 33.565 37 23.385a13.27 13.27 0 00-3.932-9.463l.017-.043zm1.667 9.469c-.007 8.587-9.433 13.95-16.888 9.567l-.405-.241-4.219 1.097 1.13-4.1-.268-.423c-4.64-7.385.69-17.038 9.479-17.038 2.986 0 5.788 1.165 7.899 3.274a11.012 11.012 0 013.272 7.864z"/></g><defs><clipPath id="clip0"><path fill="#fff" transform="translate(10 10)" d="M0 0h27v27H0z"/></clipPath></defs></svg>
